X: 5704
T: Cad E Sin Don Te Sin
R: waltz
M: 3/4
K: Aminor
|:EG|"Am"A3cBG|A4GA|"C"c3d(3edc|"G"d4cd|"Am"e2a2e2|
"Dm"f4ed|1 "Am"c2A2AB|"G"G4:|2 "Am"c2A2"Am"G2|A4e2||
|:"Am"a3bag|a4ba|"C"g2e2^f2|"G"g4e2|"Am"e2a2e2|
"Dm"f4ed|1 c2A2AB|"G"G4e2:|2 "Am"c2A2"G"G2|"Am"A4||

